!!!!SEGMENT:pl-kk--kk-i-7--061_asola-giovanni-mateo-ave-sanctissima-maria.krn
!!!id: 16xx:900
!!!COM: Asola, Giovanni Mateo
!!!OTL: Ave Sanctissima Maria
!!!PDT:
!!!SMS-siglum: PL-Kk
!!!SMS-shelfmark: Kk.I.7
!!!NIFC-rismID: 300258138
!!!URL-scan: http://repozytorium.nifc.pl/skany/pl-kk-nut--i-7
!!!ONB-nifc: UWAGA: C (skan 0059-0060, s.111-112), A (0146, s.112-113), T (0222-0223, s.107-108), B (0309-0310, s.105-106). Następny utwór: Tradent enim vos in conciliis
!!!SMS-variant:
!!!SMS-altvar:
**kern	**text	**kern	**text	**kern	**text	**kern	**text
*part4	*part4	*part3	*part3	*part2	*part2	*part1	*part1
*staff4	*staff4	*staff3	*staff3	*staff2	*staff2	*staff1	*staff1
*I"BASSVS.	*	*I"TENOR.	*	*I"ALTVS.	*	*I"CANTVS.	*
*I'B	*	*I'T	*	*I'A	*	*I'S	*
*clefF4	*	*clefC4	*	*clefC4	*	*clefC3	*
*k[b-]	*	*k[b-]	*	*k[b-]	*	*k[b-]	*
*F:	*	*F:	*	*F:	*	*F:	*
*M2/1	*	*M2/1	*	*M2/1	*	*M2/1	*
*met(C|)	*	*met(C|)	*	*met(C|)	*	*met(C|)	*
=1-	=1-	=1-	=1-	=1-	=1-	=1-	=1-
!	!	!	!	!	!	!LO:TX:t=P:problem:oddech/cezura na różnej wysokości:global	!
!LO:TX:t=P:problem:inicjał "A" na pięciolinii przed kluczem	!	!LO:TX:t=P:problem:inicjał "A" na pięciolinii przed kluczem	!	!LO:TX:t=P:problem:inicjał "A" na pięciolinii przed kluczem	!	!LO:TX:t=P:problem:inicjał "A" na pięciolinii przed kluczem	!
!LO:TX:t=P:problem:kreska pseudotaktowa	!	!	!	!	!	!LO:TX:t=P:problem:all\right:global	!
1r	.	00r	.	1G	A-	00r	.
1G	A-	.	.	1.B-	-ue	.	.
=2-	=2-	=2-	=2-	=2-	=2-	=2-	=2-
*2\right	*	*2\right	*	*2\right	*	*2\right	*
2G\	-ue	.	.	.	.	.	.
!LO:TX:t=P:problem:kreska pseudotaktowa	!	!	!	!LO:TX:t=P:problem:kreska pseudotaktowa	!	!	!
2F\	Sanc-	.	.	2A/	Sanc-	.	.
*	*	*	*	*	*	*	*
2G\	-tiſ-	.	.	2B-\	-tiſ-	.	.
2E-X\	-si-	.	.	2c\	-si-	.	.
=3-	=3-	=3-	=3-	=3-	=3-	=3-	=3-
!	!	!	!	!	!	!LO:TX:t=P:problem:kreska pseudotaktowa	!
2D/	-ma	0r	.	1d	-ma	1r	.
!LO:TX:t=P:problem:kreska pseudotaktowa	!	!	!	!	!	!	!
2D/	Ma-	.	.	.	.	.	.
!	!	!	!	!LO:TX:t=P:problem:kreska pseudotaktowa	!	!	!
2.E-X\	-ri-	.	.	1B-	Ma-	0G	A-
4D/	.	.	.	.	.	.	.
=4-	=4-	=4-	=4-	=4-	=4-	=4-	=4-
!	!	!LO:TX:t=P:problem:kreska pseudotaktowa	!	!	!	!	!
1C	.	1r	.	1c	-ri-	.	.
!LO:TX:t=P:problem:kreska pseudotaktowa	!	!	!	!LO:TX:t=P:problem:kreska pseudotaktowa	!	!	!
1GG,	-a	1G	A-	0d	-a	1.B-	-ue
=5-	=5-	=5-	=5-	=5-	=5-	=5-	=5-
*	*ij	*	*	*	*	*	*
1D	A-	2G/	-ue	.	.	.	.
!	!	!	!	!	!	!LO:TX:t=P:problem:kreska pseudotaktowa	!
.	.	2F/	Sanc-	.	.	2A/	Sanc-
2GG/	-ue	2G/	-tiſ-	2r	.	2B-/	.
2AA/	Sanc-	2E/	-si-	2A/	Sanc-	2c/	-tiſ-
=6-	=6-	=6-	=6-	=6-	=6-	=6-	=6-
2BB-/	-tiſ-	2D,/	-ma	2F/	-tiſ-	1.d	-si-
!LO:TX:t=P:problem:kreska pseudotaktowa	!	!	!	!LO:TX:t=P:problem:kreska pseudotaktowa	!	!	!
2GG/	-si-	1G	Ma-	2B-\	-si-	.	.
1D	-ma	.	.	2A/	-ma	.	.
!	!	!	!	!	!	!LO:TX:t=P:problem:kreska pseudotaktowa	!
!	!	!LO:TX:t=P:problem:kreska pseudotaktowa	!	!	!	!	!
.	.	2F/	.	2.B-\	Ma-	2d\	-ma
=7-	=7-	=7-	=7-	=7-	=7-	=7-	=7-
*	*	*lig	*	*	*	*	*
1E-X	Ma-	1G	-ri-	.	.	2B-/	Ma-
.	.	.	.	4A/	.	.	.
.	.	.	.	1G	.	2c/	-ri-
!	!	!	!	!	!	!LO:TX:t=P:problem:kreska pseudotaktowa	!
1D	-ri-	1A	.	.	.	1d	-a
!	!	!	!	!LO:TX:t=P:problem:kreska pseudotaktowa	!	!	!
.	.	.	.	2F/	-ri-	.	.
*	*	*Xlig	*	*	*	*	*
=8-	=8-	=8-	=8-	=8-	=8-	=8-	=8-
!LO:TX:t=P:problem:kreska pseudotaktowa	!	!LO:TX:t=P:problem:kreska pseudotaktowa	!	!	!	!	!
1GG	-a	0G	-a	2G,/	-a	2r	.
*	*Xij	*	*	*	*	*	*
.	.	.	.	1B-	Ma-	1d	Ma-
2r	.	.	.	.	.	.	.
!	!	!	!	!LO:TX:t=P:problem:kreska pseudotaktowa	!	!	!
1G\	Ma-	.	.	2B-\	-ter	2d\	-ter
=9-	=9-	=9-	=9-	=9-	=9-	=9-	=9-
*	*	*	*	*lig	*	*lig	*
.	.	2r	.	1B-	De-	1d	De-
!LO:TX:t=P:problem:kreska pseudotaktowa	!	!	!	!	!	!	!
2G\	-ter	1G	Ma-	.	.	.	.
*lig	*	*	*	*col	*	*	*
1C	De-	.	.	2.c\	.	1e-X	.
!	!	!LO:TX:t=P:problem:kreska pseudotaktowa	!	!	!	!	!
.	.	2G/	-ter	.	.	.	.
*	*	*	*	*Xcol	*	*	*
*	*	*	*	*Xlig	*	*Xlig	*
!	!	!	!	!LO:TX:t=P:problem:kreska pseudotaktowa	!	!	!
.	.	.	.	4B-\	.	.	.
*	*	*	*	*	*	*	*
=10-	=10-	=10-	=10-	=10-	=10-	=10-	=10-
!LO:TX:t=P:problem:kreska pseudotaktowa	!	!	!	!	!	!	!
!LO:SIC:v:t=custos GG	!	!	!	!	!	!	!
*	*	*lig	*	*	*	*	*
!	!	!	!	!	!	!LO:TX:t=P:problem:kreska pseudotaktowa	!
1D	.	1F#X	De-	4A/	.	0d	-i
.	.	.	.	4G/	.	.	.
!	!	!	!	!LO:TX:t=P:problem:kreska pseudotaktowa	!	!	!
!	!	!	!	!LO:SIC:v:t=custos B-	!	!	!
.	.	.	.	2A/	.	.	.
!LO:PB:g=original	!	!	!	!LO:LB:g=original	!	!	!
*Xlig	*	*	*	*	*	*	*
2GG,/	-i,	1G	.	1B-	.	.	.
!LO:TX:t=P:problem:kreska pseudotaktowa	!	!	!	!	!	!	!
2G\	Re-	.	.	.	.	.	.
*	*	*Xlig	*	*	*	*	*
=11-	=11-	=11-	=11-	=11-	=11-	=11-	=11-
!	!	!LO:TX:t=P:problem:kreska pseudotaktowa	!	!LO:TX:t=P:problem:kreska pseudotaktowa	!	!	!
2G\	-gi-	1D	-i	1A	-i	2r	.
*	*	*	*	*	*	*	*ij
2F\	-na	.	.	.	.	1d	Ma-
*lig	*	*	*	*	*	*	*
1B-	cae-	0r	.	2r	.	.	.
!	!	!	!	!	!	!LO:TX:t=P:problem:kreska pseudotaktowa	!
.	.	.	.	2G/	Re-	2d\	-ter
=12-	=12-	=12-	=12-	=12-	=12-	=12-	=12-
1A	.	.	.	2G/	-gi-	0d	De-
!	!	!	!	!LO:TX:t=P:problem:kreska pseudotaktowa	!	!	!
.	.	.	.	2F/	-na	.	.
*Xlig	*	*	*	*lig	*	*	*
2G\	-li	2r	.	1B-	cae-	.	.
*	*ij	*	*	*	*	*	*
!LO:TX:t=P:problem:kreska pseudotaktowa	!	!LO:TX:t=P:problem:kreska pseudotaktowa	!	!	!	!	!
2GG/	Re-	2G/	Re-	.	.	.	.
=13-	=13-	=13-	=13-	=13-	=13-	=13-	=13-
!	!	!	!	!	!	!LO:TX:t=P:problem:kreska pseudotaktowa	!
2.D/	-gi-	2G/	-gi-	1A	.	0d	-i
*	*	*	*	*	*	*	*Xij
.	.	2Fny/	-na	.	.	.	.
4C/	-na	.	.	.	.	.	.
*	*	*lig	*	*Xlig	*	*	*
!	!	!	!	!LO:TX:t=P:problem:kreska pseudotaktowa	!	!	!
2BB-/	cae-	1B-	cae-	1G	-li	.	.
2GG/	.	.	.	.	.	.	.
=14-	=14-	=14-	=14-	=14-	=14-	=14-	=14-
*lig	*	*	*	*	*ij	*	*
1D	.	1A	.	2r	.	2r	.
.	.	.	.	2F/	Re-	2d\	Re-
*	*	*Xlig	*	*	*	*	*
!	!	!LO:TX:t=P:problem:kreska pseudotaktowa	!	!	!	!	!
1E-X	.	1G	-li	2G/	-gi-	2d\	-gi-
!	!	!	!	!LO:TX:t=P:problem:kreska pseudotaktowa	!	!LO:TX:t=P:problem:kreska pseudotaktowa	!
.	.	.	.	2G/	-na	2c/	-na
*Xlig	*	*	*	*	*	*	*
=15-	=15-	=15-	=15-	=15-	=15-	=15-	=15-
!LO:TX:t=P:problem:kreska pseudotaktowa	!	!	!	!	!	!	!
*	*	*	*	*	*	*lig	*
1D	-li	2r	.	2A/	cae-	1f	cae-
*	*Xij	*	*	*	*	*	*
.	.	2D/	Re-	1d	.	.	.
!	!	!	!	!	!	!LO:TX:t=P:problem:kreska pseudotaktowa	!
!	!	!	!	!	!	!LO:SIC:v:t=custos d	!
1r	.	2A/	-gi-	.	.	1eny	.
!	!	!LO:TX:t=P:problem:kreska pseudotaktowa	!	!	!	!	!
!	!	!LO:SIC:v:t=custos B	!	!	!	!	!
.	.	2A/	-na	2c\	.	.	.
*	*	*	*	*	*	*Xlig	*
!	!	!LO:PB:g=original	!	!	!	!LO:PB:g=original	!
=16-	=16-	=16-	=16-	=16-	=16-	=16-	=16-
!	!	!LO:TX:t=P:problem:kreska pseudotaktowa	!	!LO:TX:t=P:problem:kreska pseudotaktowa	!	!LO:TX:t=P:problem:kreska pseudotaktowa	!
2r	.	1B-	cae-	1d	-li	0d	-li
*	*	*	*	*	*Xij	*	*
1G	Por-	.	.	.	.	.	.
.	.	2A/	-li,	2r	.	.	.
!LO:TX:t=P:problem:kreska pseudotaktowa	!	!	!	!LO:TX:t=P:problem:kreska pseudotaktowa	!	!	!
2F\	-ta	2.d\	Por-	2A/	Por-	.	.
=17-	=17-	=17-	=17-	=17-	=17-	=17-	=17-
2G\	pa-	.	.	2B-\	-ta	1r	.
.	.	4c\	.	.	.	.	.
2G\	-ra-	4B-\	.	1d	Pa-	.	.
!	!	!LO:TX:t=P:problem:kreska pseudotaktowa	!	!	!	!	!
.	.	4A/	.	.	.	.	.
1Eny	-dy-	2G/	-ta	.	.	2r	.
!	!	!LO:TX:t=P:problem:kreska pseudotaktowa	!	!LO:TX:t=P:problem:kreska pseudotaktowa	!	!	!
.	.	2G/	.	2c\	-ra-	1g\	Por-
=18-	=18-	=18-	=18-	=18-	=18-	=18-	=18-
!LO:TX:t=P:problem:kreska pseudotaktowa	!	!	!	!	!	!	!
1D	-si	2A/	pa-	1d	-dy-	.	.
!	!	!	!	!	!	!LO:TX:t=P:problem:kreska pseudotaktowa	!
.	.	2A/	-ra-	.	.	2f\	-ta
!	!	!	!	!LO:TX:t=P:problem:kreska pseudotaktowa	!	!	!
1r	.	4B-\	-dy-	1G	-si	2g\	pa-
.	.	4c\	.	.	.	.	.
.	.	1d\	.	.	.	2g\	-ra-
=19-	=19-	=19-	=19-	=19-	=19-	=19-	=19-
*	*	*	*	*lig	*	*	*
1AA	Do-	.	.	1A	Do-	1e	-dy-
!	!	!LO:TX:t=P:problem:kreska pseudotaktowa	!	!	!	!	!
.	.	2c\	.	.	.	.	.
!	!	!	!	!	!	!LO:TX:t=P:problem:kreska pseudotaktowa	!
2D/	-mi-	2d,\	-si	1.d	.	1d	-si
!LO:TX:t=P:problem:kreska pseudotaktowa	!	!	!	!	!	!	!
2D/	-na	1B-\	Do-	.	.	.	.
*	*	*	*	*Xlig	*	*	*
=20-	=20-	=20-	=20-	=20-	=20-	=20-	=20-
1E-X	mun-	.	.	.	.	1r	.
!	!	!LO:TX:t=P:problem:kreska pseudotaktowa	!	!LO:TX:t=P:problem:kreska pseudotaktowa	!	!	!
.	.	2G/	-mi-	2c\	-mi-	.	.
!LO:SIC:v:t=custos BB-	!	!	!	!	!	!	!
2D/	-di,	2A/	-na	0d	-na	1.f	Do-
!LO:LB:g=original	!	!	!	!	!	!	!
*	*ij	*	*	*	*	*	*
1BB-/	Do-	2.B-\	mun-	.	.	.	.
=21-	=21-	=21-	=21-	=21-	=21-	=21-	=21-
.	.	.	.	.	.	.	.
.	.	4A/	.	.	.	.	.
!LO:TX:t=P:problem:kreska pseudotaktowa	!	!	!	!	!	!	!
2BB-/	-mi-	4F/	.	.	.	2f\	-mi-
!	!	!LO:TX:t=P:problem:kreska pseudotaktowa	!	!	!	!	!
.	.	4G/	.	.	.	.	.
!	!	!	!	!	!	!LO:TX:t=P:problem:kreska pseudotaktowa	!
1C	-na	4A/	.	2.c\	mun-	1e	-na
.	.	4G/	.	.	.	.	.
.	.	1G/	.	.	.	.	.
.	.	.	.	4B-\	.	.	.
=22-	=22-	=22-	=22-	=22-	=22-	=22-	=22-
!	!	!	!	!LO:TX:t=P:problem:kreska pseudotaktowa	!	!	!
!	!	!	!	!LO:SIC:v:t=custos B-	!	!	!
1D	mun-	.	.	1A	.	1d	mun-
.	.	2F#X/	.	.	.	.	.
!	!	!	!	!LO:LB:g=original	!	!	!
!LO:TX:t=P:problem:kreska pseudotaktowa	!	!LO:TX:t=P:problem:kreska pseudotaktowa	!	!	!	!LO:TX:t=P:problem:kreska pseudotaktowa	!
1GG,	-di,	1G	-di	2.B-\	.	1d	-di
*	*Xij	*	*	*	*	*	*
.	.	.	.	4c\	.	.	.
=23-	=23-	=23-	=23-	=23-	=23-	=23-	=23-
*lig	*	*	*	*	*	*	*
!	!	!	!	!LO:TX:t=P:problem:kreska pseudotaktowa	!	!	!
1G	Pu-	1r	.	1d	-di	2r	.
*	*	*	*	*	*	*lig	*
.	.	.	.	.	.	1d	Pu-
1.B-	.	1.d	Pu-	00r	.	.	.
.	.	.	.	.	.	1f\	.
*Xlig	*	*	*	*	*	*Xlig	*
=24-	=24-	=24-	=24-	=24-	=24-	=24-	=24-
.	.	.	.	.	.	.	.
!	!	!LO:TX:t=P:problem:kreska pseudotaktowa	!	!	!	!LO:TX:t=P:problem:kreska pseudotaktowa	!
2A\	-ra	2c\	-ra	.	.	2f\	-ra
2G\	ſin-	2B-\	ſin-	.	.	2e\	Sin-
!	!	!LO:SIC:v:t=custos G	!	!	!	!	!
2F\	-gu-	2A/	-gu-	.	.	4d\	.
.	.	.	.	.	.	2d\	-gu-
!	!	!LO:LB:g=original	!	!	!	!	!
=25-	=25-	=25-	=25-	=25-	=25-	=25-	=25-
1E-X	-la-	1G	-la-	.	.	.	.
.	.	.	.	.	.	8c/L	.
.	.	.	.	.	.	8B-/J	.
!	!	!	!	!	!	!LO:TX:t=P:problem:kreska pseudotaktowa	!
.	.	.	.	.	.	2c/	-la-
!LO:TX:t=P:problem:kreska pseudotaktowa	!	!	!	!	!	!LO:TX:t=P:problem:kreska pseudotaktowa	!
1D	-ris	2A,/	-ris	2r	.	1d	-ris
*	*	*	*ij	*	*	*	*
.	.	1B-\	Pu-	1d\	Pu-	.	.
=26-	=26-	=26-	=26-	=26-	=26-	=26-	=26-
0r	.	.	.	.	.	0r	.
!	!	!LO:TX:t=P:problem:kreska pseudotaktowa	!	!LO:TX:t=P:problem:kreska pseudotaktowa	!	!	!
.	.	2A/	-ra	2c\	-ra	.	.
.	.	2G/	ſin-	2B-\	Sin-	.	.
!	!	!	!	!LO:TX:t=P:problem:kreska pseudotaktowa	!	!	!
.	.	2Fny/	-gu-	2A/	-gu-	.	.
=27-	=27-	=27-	=27-	=27-	=27-	=27-	=27-
2r	.	1E-X	-la-	2B-\	-la-	1G	Tu
1G	Tu	.	.	2c\	-ris	.	.
!	!	!LO:TX:t=P:problem:kreska pseudotaktowa	!	!LO:TX:t=P:problem:kreska pseudotaktowa	!	!LO:TX:t=P:problem:kreska pseudotaktowa	!
.	.	1D	-ris	1d	.	1A	es
*	*	*	*Xij	*	*	*	*
!LO:TX:t=P:problem:kreska pseudotaktowa	!	!	!	!	!	!	!
2F\	es	.	.	.	.	.	.
=28-	=28-	=28-	=28-	=28-	=28-	=28-	=28-
*	*	*	*	*	*	*lig	*
1G	Vir-	2r	.	2r	.	1B-	Vir-
.	.	1G	Tu	1d	Tu	.	.
!	!	!	!	!	!	!LO:TX:t=P:problem:kreska pseudotaktowa	!
!	!	!	!	!	!	!LO:SIC:v:t=custos G	!
1D	-go	.	.	.	.	1A	.
!	!	!	!	!LO:TX:t=P:problem:kreska pseudotaktowa	!	!	!
.	.	2F/	es	2d\	es	.	.
*	*	*	*	*	*	*Xlig	*
!	!	!	!	!	!	!LO:LB:g=original	!
=29-	=29-	=29-	=29-	=29-	=29-	=29-	=29-
!	!	!LO:TX:t=P:problem:kreska pseudotaktowa	!	!	!	!	!
*	*	*	*	*lig	*	*	*
1r	.	1G	Vir-	1B-	Vir-	2G,/	-go
*	*	*	*	*	*	*	*ij
.	.	.	.	.	.	1g	Tu
!	!	!	!	!LO:TX:t=P:problem:kreska pseudotaktowa	!	!	!
2r	.	2D,/	-go	1A	.	.	.
*	*ij	*	*ij	*	*	*	*
!LO:TX:t=P:problem:kreska pseudotaktowa	!	!	!	!	!	!	!
2D/	Tu	1d\	Tu	.	.	2f\	es
*	*	*	*	*Xlig	*	*	*
=30-	=30-	=30-	=30-	=30-	=30-	=30-	=30-
1GG	es	.	.	2G/	.	1g	Vir-
.	.	2d\	es	2.B-\	.	.	.
*	*	*lig	*	*	*	*	*
!	!	!	!	!	!	!LO:TX:t=P:problem:kreska pseudotaktowa	!
2.BB-/	Vir-	1B-	Vir-	.	.	0.d	-go
*	*	*	*	*	*	*	*Xij
.	.	.	.	4A/	.	.	.
.	.	.	.	1G/	.	.	.
4C/	.	.	.	.	.	.	.
=31-	=31-	=31-	=31-	=31-	=31-	=31-	=31-
!	!	!LO:TX:t=P:problem:kreska pseudotaktowa	!	!	!	!	!
1D	.	1A	.	.	.	.	.
!	!	!	!	!LO:TX:t=P:problem:kreska pseudotaktowa	!	!	!
.	.	.	.	2F/	-go	.	.
*	*	*Xlig	*	*	*	*	*
!LO:TX:t=P:problem:kreska pseudotaktowa	!	!	!	!LO:TX:t=P:problem:kreska pseudotaktowa	!	!	!
1GG	-go	2G,/	-go	0G	.	.	.
*	*Xij	*	*Xij	*	*	*	*
!	!	!LO:TX:t=P:problem:kreska pseudotaktowa	!	!	!	!	!
.	.	2d\	Tu	.	.	.	.
=32-	=32-	=32-	=32-	=32-	=32-	=32-	=32-
!	!	!	!	!	!	!LO:N:vis=00	!
2r	.	2d\	con-	.	.	00r	.
2G\	Tu	2d\	-ce-	.	.	.	.
2G\	con-	2B-\	-pi-	2r	.	.	.
!LO:TX:t=P:problem:kreska pseudotaktowa	!	!	!	!	!	!	!
!LO:SIC:v:t=custos F	!	!LO:TX:t=P:problem:kreska pseudotaktowa	!	!	!	!	!
2G\	-ce-	2G/	-ſti	2d\	Tu	.	.
!LO:LB:g=original	!	!	!	!	!	!	!
=33-	=33-	=33-	=33-	=33-	=33-	=33-	=33-
2F\	-pi-	1A	Je-	2d\	con-	.	.
!	!	!	!	!LO:TX:t=P:problem:kreska pseudotaktowa	!	!	!
2D/	-ſti	.	.	2d\	-ce-	.	.
!	!	!LO:TX:t=P:problem:kreska pseudotaktowa	!	!	!	!	!
1E-X	Je-	1G	-sum	2B-\	-pi-	.	.
.	.	.	.	2G/	-ſti	.	.
=34-	=34-	=34-	=34-	=34-	=34-	=34-	=34-
!LO:TX:t=P:problem:kreska pseudotaktowa	!	!	!	!LO:TX:t=P:problem:kreska pseudotaktowa	!	!	!
1D	-ſum	2r	.	1A	Je-	2r	.
*	*	*	*ij	*	*	*	*
!	!	!LO:TX:t=P:problem:kreska pseudotaktowa	!	!	!	!	!
!	!	!LO:SIC:v:t=custos B-	!	!	!	!LO:TX:t=P:problem:kreska pseudotaktowa	!
.	.	2F/	Tu	.	.	2d\	Tu
!	!	!LO:LB:g=original	!	!	!	!	!
!	!	!	!	!LO:TX:t=P:problem:kreska pseudotaktowa	!	!	!
!	!	!	!	!LO:SIC:v:t=custos d	!	!	!
2r	.	2.B-\	con-	1G	-sum	2d\	con-
*	*ij	*	*	*	*	*	*
2G\	Tu	.	.	.	.	2d\	-ce-
.	.	4c\	-ce-	.	.	.	.
!	!	!	!	!LO:LB:g=original	!	!	!
=35-	=35-	=35-	=35-	=35-	=35-	=35-	=35-
2G\	con-	2d\	-pi-	2r	.	2B-/	-pi-
*	*	*	*	*	*ij	*	*
!LO:TX:t=P:problem:kreska pseudotaktowa	!	!LO:TX:t=P:problem:kreska pseudotaktowa	!	!LO:TX:t=P:problem:kreska pseudotaktowa	!	!LO:TX:t=P:problem:kreska pseudotaktowa	!
2G\	-ce-	2B-\	-ſti	2d\	Tu	2G/	-ſti
2F\	-pi-	2A/	Je-	2d\	con-	1A	Je-
2D/	-ſti	2F/	-sum	2d\	-ce-	.	.
*	*	*	*Xij	*	*	*	*
=36-	=36-	=36-	=36-	=36-	=36-	=36-	=36-
1E-X	Je-	4G/	Je-	2B-\	-pi-	2G,/	-ſum
.	.	4A/	.	.	.	.	.
!	!	!	!	!LO:TX:t=P:problem:kreska pseudotaktowa	!	!LO:TX:t=P:problem:kreska pseudotaktowa	!
.	.	4B-\	.	2G/	-ſti	2g\	ſi-
!	!	!LO:TX:t=P:problem:kreska pseudotaktowa	!	!	!	!	!
.	.	4c\	.	.	.	.	.
!LO:TX:t=P:problem:kreska pseudotaktowa	!	!	!	!	!	!	!
1D,	-ſum	1d	.	1A	Je-	2g\	-ne
*	*Xij	*	*	*	*	*	*
.	.	.	.	.	.	2f\	pec-
=37-	=37-	=37-	=37-	=37-	=37-	=37-	=37-
1G	ſi-	2B-,\	Sum	2G/	-sum	2.g\	-ca-
*	*	*	*	*	*Xij	*	*
!	!	!LO:TX:t=P:problem:kreska pseudotaktowa	!	!LO:TX:t=P:problem:kreska pseudotaktowa	!	!	!
.	.	2B-\	Si-	2d\	ſi-	.	.
!	!	!	!	!	!	!LO:TX:t=P:problem:kreska pseudotaktowa	!
.	.	.	.	.	.	4f\	.
2C/	-ne	2G/	-ne	2c\	-ne	2e\	.
!	!	!LO:TX:t=P:problem:kreska pseudotaktowa	!	!	!	!	!
2D/	pec-	2F/	pec-	2.B-\	pec-	2.d\	.
=38-	=38-	=38-	=38-	=38-	=38-	=38-	=38-
*lig	*	*lig	*	*	*	*	*
1E-X	-ca-	1G	-ca-	.	.	.	.
.	.	.	.	4A/	-ca-	8c/L	.
.	.	.	.	.	.	8B-/J	.
!	!	!	!	!	!	!LO:SIC:v:s=2c	!
.	.	.	.	1G	.	2c#X/	.
!LO:TX:t=P:problem:kreska pseudotaktowa	!	!	!	!	!	!	!
!	!	!	!	!	!	!LO:TX:t=P:problem:kreska pseudotaktowa	!
1D	.	1A	.	.	.	0d	-to
!	!	!	!	!LO:TX:t=P:problem:kreska pseudotaktowa	!	!	!
.	.	.	.	2F/	.	.	.
*Xlig	*	*Xlig	*	*	*	*	*
=39-	=39-	=39-	=39-	=39-	=39-	=39-	=39-
!	!	!	!	!LO:TX:t=P:problem:kreska pseudotaktowa	!	!	!
2GG,/	-to	1B-	-to	1G	-to	.	.
2G\	Tu	.	.	.	.	.	.
!	!	!LO:TX:t=P:problem:kreska pseudotaktowa	!	!	!	!	!
2F\	pe-	1A	.	2r	.	1r	.
!LO:TX:t=P:problem:kreska pseudotaktowa	!	!	!	!	!	!	!
2D/	-pe-	.	.	2d\	Tu	.	.
=40-	=40-	=40-	=40-	=40-	=40-	=40-	=40-
1F	-ri-	1r	.	2c\	pe-	2r	.
!	!	!	!	!	!	!LO:TX:t=P:problem:kreska pseudotaktowa	!
!	!	!	!	!LO:TX:t=P:problem:kreska pseudotaktowa	!	!LO:SIC:v:t=custos e	!
.	.	.	.	2A/	-pe-	2f\	Tu
!	!	!	!	!	!	!LO:LB:g=original	!
!LO:TX:t=P:problem:kreska pseudotaktowa	!	!	!	!	!	!	!
1C	-ſti	2r	.	1c	-ri-	2.e\	pe-
.	.	2c\	Tu	.	.	.	.
.	.	.	.	.	.	8d\L	.
!	!	!	!	!	!	!LO:TX:t=P:problem:kreska pseudotaktowa	!
.	.	.	.	.	.	8cny\J	.
=41-	=41-	=41-	=41-	=41-	=41-	=41-	=41-
!	!	!	!	!LO:TX:t=P:problem:kreska pseudotaktowa	!	!	!
2r	.	2B-\	pe-	1G	-ſti	2d\	.
*	*ij	*	*	*	*	*	*
!	!	!LO:TX:t=P:problem:kreska pseudotaktowa	!	!	!	!	!
2C/	Tu	2G/	-pe-	.	.	2e\	.
2BB-/	pe-	1B-	-ri-	1r	.	2.d\	.
2GG/	-pe-	.	.	.	.	.	.
.	.	.	.	.	.	4e\	-pe-
=42-	=42-	=42-	=42-	=42-	=42-	=42-	=42-
!LO:TX:t=P:problem:kreska pseudotaktowa	!	!	!	!	!	!	!
!LO:SIC:v:t=custos AA	!	!LO:TX:t=P:problem:kreska pseudotaktowa	!	!	!	!	!
1D	-ri-	1A,	-ſti	2r	.	1f	-ri-
.	.	.	.	1d	Cre-	.	.
!LO:LB:g=original	!	!	!	!	!	!	!
!LO:TX:t=P:problem:kreska pseudotaktowa	!	!	!	!	!	!LO:TX:t=P:problem:kreska pseudotaktowa	!
1AA	-ſti	1.A	cre-	.	.	1e	-ſti
*	*Xij	*	*	*	*	*	*
!	!	!	!	!LO:TX:t=P:problem:kreska pseudotaktowa	!	!	!
.	.	.	.	2d\	-a-	.	.
=43-	=43-	=43-	=43-	=43-	=43-	=43-	=43-
1.D	cre-	.	.	1d	-to-	2r	.
.	.	2A/	-a-	.	.	1f	Cre-
.	.	1A	-to-	1.d	-rem	.	.
2D/	-a-	.	.	.	.	2f\	-a-
=44-	=44-	=44-	=44-	=44-	=44-	=44-	=44-
!	!	!LO:TX:t=P:problem:kreska pseudotaktowa	!	!	!	!	!
!	!	!LO:SIC:v:t=custos G	!	!	!	!	!
1BB-	-to-	1B-	-rem	.	.	1f	-to-
!	!	!	!	!LO:TX:t=P:problem:kreska pseudotaktowa	!	!	!
.	.	.	.	2d\	et	.	.
!	!	!LO:LB:g=original	!	!	!	!	!
!LO:TX:t=P:problem:kreska pseudotaktowa	!	!	!	!	!	!LO:TX:t=P:problem:kreska pseudotaktowa	!
1C	-re(m)	1.G	et	2c\	Sal-	1e	-rem
.	.	.	.	2c\	-ua-	.	.
=45-	=45-	=45-	=45-	=45-	=45-	=45-	=45-
!	!	!	!	!LO:TX:t=P:problem:kreska pseudotaktowa	!	!	!
!	!	!	!	!LO:SIC:v:t=custos A	!	!	!
2GG/	et	.	.	1B-	-to-	2d\	et
1D	Sal-	1F	Sal-	.	.	1d	Sal-
!	!	!	!	!LO:LB:g=original	!	!	!
!	!	!	!	!LO:TX:t=P:problem:kreska pseudotaktowa	!	!	!
.	.	.	.	1A	-rem	.	.
!	!	!LO:TX:t=P:problem:kreska pseudotaktowa	!	!	!	!	!
2D/	-ua-	2F/	-ua-	.	.	2f\	-ua-
=46-	=46-	=46-	=46-	=46-	=46-	=46-	=46-
*	*	*	*	*lig	*	*	*
1C	-to-	1.G	-to-	1c	mun-	2e\	-to-
!	!	!	!	!	!	!LO:TX:t=P:problem:kreska pseudotaktowa	!
.	.	.	.	.	.	2c/	-re(m)
!LO:TX:t=P:problem:kreska pseudotaktowa	!	!	!	!LO:TX:t=P:problem:2.B- brak koloru	!	!	!
1GG	-re(m)	.	.	2.B-\	.	1d	mun-
!	!	!LO:TX:t=P:problem:kreska pseudotaktowa	!	!	!	!	!
.	.	2G/	-rem	.	.	.	.
*	*	*	*	*Xlig	*	*	*
.	.	.	.	8A/L	.	.	.
!	!	!	!	!LO:TX:t=P:problem:kreska pseudotaktowa	!	!	!
.	.	.	.	8G/J	.	.	.
=47-	=47-	=47-	=47-	=47-	=47-	=47-	=47-
!	!	!	!	!	!	!LO:TX:t=P:problem:kreska pseudotaktowa	!
1D	mun-	1F	mun-	1A	.	0d	-di
2GG/	-di	2G/	-di	2G,/	-di	.	.
!LO:TX:t=P:problem:kreska pseudotaktowa	!	!LO:TX:t=P:problem:kreska pseudotaktowa	!	!LO:TX:t=P:problem:kreska pseudotaktowa	!	!	!
2GG/	in	2G/	in	2B-\	in	.	.
=48-	=48-	=48-	=48-	=48-	=48-	=48-	=48-
2.D/	quo	2.F/	quo	2A/	quo	2r	.
!	!	!	!	!LO:TX:t=P:problem:kreska pseudotaktowa	!	!	!
.	.	.	.	2d\	no(n)	2f\	in
4Eny\	.	4G/	.	.	.	.	.
4F\	.	4A/	.	2.c\	du-	2f\	quo
4G\	.	4B-\	non	.	.	.	.
!	!	!	!	!	!	!LO:TX:t=P:problem:kreska pseudotaktowa	!
1A\	.	1c\	du-	.	.	2e\	.
.	.	.	.	4c\	-bi-	.	.
=49-	=49-	=49-	=49-	=49-	=49-	=49-	=49-
.	.	.	.	2A,/	-to	2.f\	non
*	*	*	*	*	*ij	*	*
!LO:TX:t=P:problem:kreska pseudotaktowa	!	!LO:TX:t=P:problem:kreska pseudotaktowa	!	!LO:TX:t=P:problem:kreska pseudotaktowa	!	!	!
2F\	non	2A/	-bi-	2A/	in	.	.
.	.	.	.	.	.	4e\	.
2.B-\	du-	2.d\	.	2B-\	quo	4d\	du-
.	.	.	.	.	.	4c/	.
.	.	.	.	1d\	no(n)	1f\	-bi-
4A\	-bi-	4c\	-ta-	.	.	.	.
=50-	=50-	=50-	=50-	=50-	=50-	=50-	=50-
1G	-ta-	4B-\	.	.	.	.	.
.	.	4A/	.	.	.	.	.
!	!	!	!	!	!	!LO:TX:t=P:problem:kreska pseudotaktowa	!
!	!	!	!	!	!	!LO:SIC:v:t=custos f	!
.	.	1B-	.	4c\	.	2e\	-ta-
!	!	!	!	!LO:TX:t=P:problem:kreska pseudotaktowa	!	!	!
.	.	.	.	4B-\	.	.	.
!	!	!	!	!	!	!LO:LB:g=original	!
!LO:TX:t=P:problem:kreska pseudotaktowa	!	!	!	!	!	!LO:TX:t=P:problem:kreska pseudotaktowa	!
1F	.	.	.	2c\	du-	0f	-mus
!	!	!LO:TX:t=P:problem:kreska pseudotaktowa	!	!	!	!	!
.	.	2A/	.	2c\	-bi-	.	.
=51-	=51-	=51-	=51-	=51-	=51-	=51-	=51-
2BB-,/	-mus,	2B-\	.	2d,\	-to	.	.
*	*	*	*	*	*Xij	*	*
!	!	!LO:TX:t=P:problem:po 2G przekreślony znak cezury	!	!LO:TX:t=P:problem:kreska pseudotaktowa	!	!	!
2.B-\	li-	2G/	.	2B-\	li-	.	.
!	!	!LO:TX:t=P:problem:kreska pseudotaktowa	!	!	!	!	!
.	.	1F	-mus	2c\	-be-	2r	.
4B-\	-be-	.	.	.	.	.	.
!LO:TX:t=P:problem:kreska pseudotaktowa	!	!	!	!	!	!	!
2A\	-ra	.	.	2c\	-ra	2.f\	Li-
=52-	=52-	=52-	=52-	=52-	=52-	=52-	=52-
2B-\	nos	2r	.	2d\	nos	.	.
.	.	.	.	.	.	4f\	-be-
!	!	!	!	!LO:TX:t=P:problem:kreska pseudotaktowa	!	!LO:TX:t=P:problem:kreska pseudotaktowa	!
2G\	ab	2.B-\	Li-	2B-\	ab	2e\	-ra
2F\	om-	.	.	2.c\	om-	2f\	nos
.	.	4B-\	-be-	.	.	.	.
!LO:TX:t=P:problem:kreska pseudotaktowa	!	!	!	!	!	!	!
!LO:SIC:v:t=custos G	!	!LO:TX:t=P:problem:kreska pseudotaktowa	!	!	!	!	!
2F\	-ni	2A/	-ra	.	.	2f\	.
.	.	.	.	4c\	-ni	.	.
!LO:LB:g=original	!	!	!	!	!	!	!
=53-	=53-	=53-	=53-	=53-	=53-	=53-	=53-
(>2G\	ma-	2B-\	nos	1G	ma-	2d\	ab
!	!	!	!	!	!	!LO:TX:t=P:problem:kreska pseudotaktowa	!
2E-X\)	.	2G/	ab	.	.	2c/	om-
!LO:TX:t=P:problem:kreska pseudotaktowa	!	!	!	!LO:TX:t=P:problem:kreska pseudotaktowa	!	!	!
1D	-lo	2F/	om-	1A	-lo	2.d\	-ni
!	!	!LO:TX:t=P:problem:kreska pseudotaktowa	!	!	!	!	!
!	!	!LO:SIC:v:t=custos G	!	!	!	!	!
.	.	2F/	-ni	.	.	.	.
.	.	.	.	.	.	4c/	.
!	!	!LO:LB:g=original	!	!	!	!	!
=54-	=54-	=54-	=54-	=54-	=54-	=54-	=54-
0r	.	2G/	ma-	2r	.	2B-/	ma-
*	*	*	*	*	*ij	*	*
!	!	!	!	!	!	!LO:TX:t=P:problem:kreska pseudotaktowa	!
.	.	2E-X/	.	2.B-\	li-	2G/	.
!	!	!LO:TX:t=P:problem:kreska pseudotaktowa	!	!	!	!	!
.	.	1D	-lo	.	.	2d,\	-lo
!	!	!	!	!LO:SIC:v:t=custos A	!	!	!
.	.	.	.	4B-\	-be-	.	.
!	!	!	!	!LO:LB:g=original	!	!	!
*	*	*	*	*	*	*	*ij
!	!	!	!	!LO:TX:t=P:problem:kreska pseudotaktowa	!	!	!
.	.	.	.	2A/	-ra	2.f\	Li-
=55-	=55-	=55-	=55-	=55-	=55-	=55-	=55-
2r	.	1r	.	2B-\	nos	.	.
.	.	.	.	.	.	4f\	-be-
!	!	!	!	!	!	!LO:TX:t=P:problem:kreska pseudotaktowa	!
2.B-\	li-	.	.	2G/	ab	2e\	-ra
.	.	1D	ab	2F/	om-	2.f\	nos
4B-\	-be-	.	.	.	.	.	.
!LO:TX:t=P:problem:kreska pseudotaktowa	!	!	!	!LO:TX:t=P:problem:kreska pseudotaktowa	!	!	!
2A\	-ra	.	.	2F/	-ni	.	.
.	.	.	.	.	.	4e\	ab
=56-	=56-	=56-	=56-	=56-	=56-	=56-	=56-
!	!	!LO:TX:t=P:problem:kreska pseudotaktowa	!	!	!	!	!
2B-\	nos	1G	om-	2G/	ma-	2d\	om-
!	!	!	!	!LO:TX:t=P:problem:kreska pseudotaktowa	!	!LO:TX:t=P:problem:kreska pseudotaktowa	!
2G\	ab	.	.	2E-X/	-lo	2c/	-ni
*	*	*	*	*	*Xij	*	*
2F\	om-	2A,/	-ni	2D,/	.	2d\	ma-
!LO:TX:t=P:problem:kreska pseudotaktowa	!	!	!	!	!	!	!
2D/	-ni	2.B-\	ma-	2F/	ab	2d\	.
=57-	=57-	=57-	=57-	=57-	=57-	=57-	=57-
*lig	*	*	*	*	*	*	*
1E-X	ma-	.	.	2G/	om-	2B-/	.
.	.	4A/	.	.	.	.	.
!	!	!	!	!LO:TX:t=P:problem:kreska pseudotaktowa	!	!LO:TX:t=P:problem:kreska pseudotaktowa	!
.	.	1G	.	2G/	-ni	2c,/	-lo
*	*	*	*	*	*	*	*Xij
1D	.	.	.	1A	ma-	0d	Et
!	!	!LO:TX:t=P:problem:kreska pseudotaktowa	!	!	!	!	!
.	.	2F/	.	.	.	.	.
*Xlig	*	*	*	*	*	*	*
=58-	=58-	=58-	=58-	=58-	=58-	=58-	=58-
!LO:TX:t=P:problem:kreska pseudotaktowa	!	!LO:TX:t=P:problem:kreska pseudotaktowa	!	!LO:N:acc=#	!	!	!
1GG,	-lo	1G,	-lo	1Bn,	-lo	.	.
!	!	!	!	!LO:TX:t=P:problem:kreska pseudotaktowa	!	!LO:TX:t=P:problem:kreska pseudotaktowa	!
1C	Et	1G	Et	1c	Et	1e	-o-
=59-	=59-	=59-	=59-	=59-	=59-	=59-	=59-
0BB-	o-	0B-	o-	0d	o-	0f	-ra
=60-	=60-	=60-	=60-	=60-	=60-	=60-	=60-
*	*	*	*	*	*	*	*ij
!	!	!LO:TX:t=P:problem:kreska pseudotaktowa	!	!	!	!	!
1.C	-ra	0.G	-ra	0c	-ra	1.e	-Et
!	!	!	!	!	!	!LO:TX:t=P:problem:kreska pseudotaktowa	!
!LO:TX:t=P:problem:kreska pseudotaktowa	!	!	!	!	!	!LO:SIC:v:t=custos d	!
2C/	et	.	.	.	.	2c/	.
!	!	!	!	!	!	!LO:LB:g=original	!
=61-	=61-	=61-	=61-	=61-	=61-	=61-	=61-
*lig	*	*	*	*	*	*	*
1GG	o-	.	.	2.B-y\	pro	0d	-o-
!	!	!	!	!LO:TX:t=P:problem:kreska pseudotaktowa	!	!	!
.	.	.	.	4B-\	pec-	.	.
1D	.	2r	.	2A/	-ca-	.	.
.	.	2A/	pro	2F/	-tis	.	.
*Xlig	*	*	*	*	*	*	*
=62-	=62-	=62-	=62-	=62-	=62-	=62-	=62-
!LO:TX:t=P:problem:kreska pseudotaktowa	!	!	!	!	!	!LO:TX:t=P:problem:kreska pseudotaktowa	!
1GG	-ra	2B-\	pec-	4G/	no-	0d	ra
*	*	*	*	*	*	*	*Xij
.	.	.	.	4A/	.	.	.
.	.	1G	-ca-	4B-\	.	.	.
!	!	!	!	!LO:TX:t=P:problem:kreska pseudotaktowa	!	!	!
.	.	.	.	4G/	.	.	.
2r	.	.	.	1A	.	.	.
!	!	!LO:TX:t=P:problem:kreska pseudotaktowa	!	!	!	!	!
2D/	pro	2F/	-tis	.	.	.	.
=63-	=63-	=63-	=63-	=63-	=63-	=63-	=63-
!	!	!	!	!LO:TX:t=P:problem:kreska pseudotaktowa	!	!	!
2E-X\	pec-	2.G/	no-	0G	-ſtris	1r	.
1C	-ca-	.	.	.	.	.	.
.	.	4F/	.	.	.	.	.
.	.	2Eny/	.	.	.	2r	.
!LO:TX:t=P:problem:kreska pseudotaktowa	!	!LO:TX:t=P:problem:kreska pseudotaktowa	!	!	!	!	!
2BB-/	-tis	2D/	-ſtris	.	.	2d\	pro
=64-	=64-	=64-	=64-	=64-	=64-	=64-	=64-
!	!	!	!	!LO:TX:t=P:problem:kreska pseudotaktowa	!	!	!
!	!	!	!	!LO:SIC:v:t=custos d	!	!	!
1C	no-	2r	.	1r	.	2e-X\	pec-
*	*	*	*ij	*	*	*	*
.	.	1G	pro	.	.	1c	-ca-
!	!	!	!	!LO:PB:g=original	!	!	!
!LO:TX:t=P:problem:kreska pseudotaktowa	!	!	!	!	!	!	!
!LO:SIC:v:t=custos C	!	!	!	!	!	!	!
1GG	-ſtris	.	.	2r	.	.	.
!	!	!LO:TX:t=P:problem:kreska pseudotaktowa	!	!LO:TX:t=P:problem:kreska pseudotaktowa	!	!LO:TX:t=P:problem:kreska pseudotaktowa	!
.	.	2G/	pec-	2d\	pro	2B-/	-tis
!LO:LB:g=original	!	!	!	!	!	!	!
=65-	=65-	=65-	=65-	=65-	=65-	=65-	=65-
1C	et	2G/	-ca-	2e\	pec-	1c	no-
.	.	2E/	-tis	1c	-ca-	.	.
!	!	!LO:TX:t=P:problem:kreska pseudotaktowa	!	!	!	!	!
!	!	!LO:SIC:v:t=custos G	!	!	!	!	!
2C/	o-	1G	no-	.	.	2G/	-ſtris
*	*	*	*	*	*	*	*ij
!LO:TX:t=P:problem:kreska pseudotaktowa	!	!	!	!	!	!LO:TX:t=P:problem:kreska pseudotaktowa	!
2GG/	-ra	.	.	2B-\	-tis	2d\	pro
!	!	!LO:LB:g=original	!	!	!	!	!
=66-	=66-	=66-	=66-	=66-	=66-	=66-	=66-
!	!	!LO:TX:t=P:problem:kreska pseudotaktowa	!	!	!	!	!
*	*	*	*	*lig	*	*	*
2.C/	pro	1G	-ſtris	1c	no-	2e-X\	pec-
*	*	*	*Xij	*	*	*	*
.	.	.	.	.	.	1c	-ca-
4D/	.	.	.	.	.	.	.
4Eny\	.	1r	.	1G	.	.	.
4F\	.	.	.	.	.	.	.
!	!	!	!	!	!	!LO:TX:t=P:problem:kreska pseudotaktowa	!
1G\	.	.	.	.	.	2B-/	-tis
*	*	*	*	*Xlig	*	*	*
=67-	=67-	=67-	=67-	=67-	=67-	=67-	=67-
!	!	!	!	!LO:TX:t=P:problem:kreska pseudotaktowa	!	!	!
.	.	2r	.	1D	-ſtris	1A	no-
!LO:TX:t=P:problem:kreska pseudotaktowa	!	!LO:TX:t=P:problem:kreska pseudotaktowa	!	!	!	!	!
2F\	pec-	2A/	pro	.	.	.	.
2G\	-ca-	2B-\	pec-	1r	.	2G/	-ſtris
2G\	-tis	1G/	-ca-	.	.	1d\	pro
=68-	=68-	=68-	=68-	=68-	=68-	=68-	=68-
1D	no-	.	.	2r	.	.	.
*	*	*	*	*	*ij	*	*
!	!	!LO:TX:t=P:problem:kreska pseudotaktowa	!	!LO:TX:t=P:problem:kreska pseudotaktowa	!	!LO:TX:t=P:problem:kreska pseudotaktowa	!
.	.	2F/	-tis	2A/	pro	2d\	pec-
!LO:TX:t=P:problem:kreska pseudotaktowa	!	!	!	!	!	!	!
1GG	-ſtris	1G	no-	2B-\	pec-	2d\	-ca-
.	.	.	.	1G/	-ca-	2B-/	-tis
=69-	=69-	=69-	=69-	=69-	=69-	=69-	=69-
2r	.	2D/	-ſtris	.	.	1A	no-
*	*	*	*ij	*	*	*	*
!	!	!LO:TX:t=P:problem:kreska pseudotaktowa	!	!LO:TX:t=P:problem:kreska pseudotaktowa	!	!	!
2D/	pro	2d\	pro	2F/	-tis	.	.
!	!	!	!	!	!	!LO:TX:t=P:problem:kreska pseudotaktowa	!
2E-X\	pec-	2B-\	pec-	2.G/	no-	1G	-ſtris
*	*	*	*	*	*	*	*Xij
1C/	-ca-	1c\	-ca-	.	.	.	.
.	.	.	.	4F/	.	.	.
=70-	=70-	=70-	=70-	=70-	=70-	=70-	=70-
.	.	.	.	2Eny/	.	2r	.
!LO:TX:t=P:problem:kreska pseudotaktowa	!	!LO:TX:t=P:problem:kreska pseudotaktowa	!	!	!	!	!
2BB-/	-tis	2d\	-tis	2D/	.	2d\	pro
*lig	*	*	*	*	*	*	*
!	!	!	!	!LO:TX:t=P:problem:kreska pseudotaktowa	!	!	!
1C	no-	1c	no-	1G	-ſtris	2e-X\	pec-
*	*	*	*	*	*Xij	*	*
.	.	.	.	.	.	1c\	-ca-
=71-	=71-	=71-	=71-	=71-	=71-	=71-	=71-
1GG	.	2d\	-ſtris	2r	.	.	.
!	!	!	!	!	!	!LO:TX:t=P:problem:kreska pseudotaktowa	!
!	!	!	!	!	!	!LO:SIC:v:t=custos c	!
.	.	1G	pro	2d\	pro	2B-/	-tis
!	!	!	!	!	!	!LO:LB:g=original	!
*Xlig	*	*	*	*	*	*	*
!LO:TX:t=P:problem:kreska pseudotaktowa	!	!	!	!	!	!	!
1C	-ſtris	.	.	2e\	pec-	1c	no-
!	!	!LO:TX:t=P:problem:kreska pseudotaktowa	!	!	!	!	!
.	.	2G/	pec-	1c\	-ca-	.	.
=72-	=72-	=72-	=72-	=72-	=72-	=72-	=72-
!	!	!	!	!	!	!LO:TX:t=P:problem:kreska pseudotaktowa	!
1r	.	1G	-ca-	.	.	1d	-ſtris
!	!	!	!	!LO:TX:t=P:problem:kreska pseudotaktowa	!	!	!
.	.	.	.	2B-\	-tis	.	.
*	*ij	*	*	*	*	*	*
!	!	!LO:TX:t=P:problem:kreska pseudotaktowa	!	!	!	!	!
1D	pro	1F#X	-tis	1A	no-	2r	.
*	*	*	*	*	*	*	*ij
.	.	.	.	.	.	2d\	pro
=73-	=73-	=73-	=73-	=73-	=73-	=73-	=73-
2E-X\	pec-	0G	no-	2G/	-ſtris	2B-/	pec-
*	*	*	*	*	*ij	*	*
1C	-ca-	.	.	1e-X	pro	1c	-ca-
!LO:TX:t=P:problem:kreska pseudotaktowa	!	!	!	!LO:TX:t=P:problem:kreska pseudotaktowa	!	!LO:TX:t=P:problem:kreska pseudotaktowa	!
2BB-/	-tis	.	.	2d\	pec-	2d\	-tis
=74-	=74-	=74-	=74-	=74-	=74-	=74-	=74-
0C	no-	[0Gl	-ſtris	2c\	-ca-	0e-X	no-
.	.	.	.	2G/	-tis	.	.
.	.	.	.	0c	no-	.	.
=75-	=75-	=75-	=75-	=75-	=75-	=75-	=75-
0GGl	-ſtris	0]	.	.	.	0dl	-ſtris
*	*Xij	*	*Xij	*	*	*	*Xij
!	!	!	!	!LO:N:vis=0	!	!	!
!	!	!	!	!LO:N:acc=#	!	!	!
.	.	.	.	1Bnl	-ſtris	.	.
*	*	*	*	*	*Xij	*	*
==	==	==	==	==	==	==	==
*-	*-	*-	*-	*-	*-	*-	*-
!!!system-decoration: [(s1,s2,s3,s4)]
!!!RDF**kern: l = terminal long
!!!RDF**kern: > = above
!!!RDF**kern: < = below
!!!ENC: Katarzyna Serwa
!!!END: 2021-03-03
!!!EED:Mateusz Mrugas
!!!EST:2021-03-18
